src/static/icons/logo.svg

<?xml version="1.0" encoding="UTF-8" standalone="no"?><!DOCTYPE svg PUBLIC "-//W3C//DTD SVG 1.1//EN" "http://www.w3.org/Graphics/SVG/1.1/DTD/svg11.dtd"><svg width="100%" height="100%" viewBox="0 0 215 261" version="1.1" xmlns="http://www.w3.org/2000/svg" xmlns:xlink="http://www.w3.org/1999/xlink" xml:space="preserve" xmlns:serif="http://www.serif.com/" style="fill-rule:evenodd;clip-rule:evenodd;stroke-linejoin:round;stroke-miterlimit:2;"><path d="M95.232,83.651l-33.39,22.467l152.349,154.332l-118.959,-176.799Z" style="fill:#ff8c54;"/><clipPath id="_clip1"><path d="M95.232,83.651l-33.39,22.467l152.349,154.332l-118.959,-176.799Z"/></clipPath><g clip-path="url(#_clip1)"><path d="M128.189,108.477l-38.756,-24.826l-27.591,43.074l38.755,24.826l27.592,-43.074Z" style="fill:url(#_Linear2);"/></g><path d="M148.88,20.542l-60.613,-20.542l-88.267,260.45l148.88,-239.908Z" style="fill:#fff;"/><defs><linearGradient id="_Linear2" x1="0" y1="0" x2="1" y2="0" gradientUnits="userSpaceOnUse" gradientTransform="matrix(38.7557,24.8258,-27.5917,43.0735,75.6374,105.188)"><stop offset="0" style="stop-color:#e74c00;stop-opacity:1"/><stop offset="1" style="stop-color:#ff8c54;stop-opacity:1"/></linearGradient></defs></svg>

<?xml version="1.0" encoding="UTF-8" standalone="no"?>
<!DOCTYPE svg PUBLIC "-//W3C//DTD SVG 1.1//EN" "http://www.w3.org/Graphics/SVG/1.1/DTD/svg11.dtd">
<svg width="100%" height="100%" viewBox="0 0 215 261" version="1.1" xmlns="http://www.w3.org/2000/svg" xmlns:xlink="http://www.w3.org/1999/xlink" xml:space="preserve" xmlns:serif="http://www.serif.com/" style="fill-rule:evenodd;clip-rule:evenodd;stroke-linejoin:round;stroke-miterlimit:2;">
    <path d="M95.232,83.651L61.842,106.118L214.191,260.45L95.232,83.651Z" style="fill:rgb(16,217,163);"/>
    <g>
        <clipPath id="_clip1">
            <path d="M95.232,83.651L61.842,106.118L214.191,260.45L95.232,83.651Z"/>
        </clipPath>
        <g clip-path="url(#_clip1)">
            <path d="M128.189,108.477L89.433,83.651L61.842,126.725L100.597,151.551L128.189,108.477Z" style="fill:url(#_Linear2);"/>
        </g>
    </g>
    <path d="M148.88,20.542L88.267,0L0,260.45L148.88,20.542Z" style="fill:white;"/>
    <defs>
        <linearGradient id="_Linear2" x1="0" y1="0" x2="1" y2="0" gradientUnits="userSpaceOnUse" gradientTransform="matrix(38.7557,24.8258,-24.8258,38.7557,75.6374,105.188)"><stop offset="0" style="stop-color:rgb(23,183,138);stop-opacity:1"/><stop offset="1" style="stop-color:rgb(16,217,163);stop-opacity:1"/></linearGradient>
    </defs>
</svg>
